svgs/sharp-solid/i-cursor.svg

<svg xmlns="http://www.w3.org/2000/svg" viewBox="0 0 256 512"><!--! Font Awesome Pro 6.6.0 by @fontawesome - https://fontawesome.com License - https://fontawesome.com/license (Commercial License) Copyright 2024 Fonticons, Inc. --><path d="M32 0c38.2 0 72.5 16.8 96 43.3C151.5 16.8 185.8 0 224 0l32 0 0 64-32 0c-35.3 0-64 28.7-64 64l0 96 32 0 32 0 0 64-32 0-32 0 0 96c0 35.3 28.7 64 64 64l32 0 0 64-32 0c-38.2 0-72.5-16.8-96-43.3C104.5 495.2 70.2 512 32 512L0 512l0-64 32 0c35.3 0 64-28.7 64-64l0-96-32 0-32 0 0-64 32 0 32 0 0-96c0-35.3-28.7-64-64-64L0 64 0 0 32 0z"/></svg>

<svg xmlns="http://www.w3.org/2000/svg" viewBox="0 0 256 512"><!--! Font Awesome Pro 6.4.2 by @fontawesome - https://fontawesome.com License - https://fontawesome.com/license (Commercial License) Copyright 2023 Fonticons, Inc. --><path d="M32 0c38.2 0 72.5 16.8 96 43.3C151.5 16.8 185.8 0 224 0h32V64H224c-35.3 0-64 28.7-64 64v96h32 32v64H192 160v96c0 35.3 28.7 64 64 64h32v64H224c-38.2 0-72.5-16.8-96-43.3C104.5 495.2 70.2 512 32 512H0V448H32c35.3 0 64-28.7 64-64V288H64 32V224H64 96V128c0-35.3-28.7-64-64-64H0V0H32z"/></svg>
